X:1
T:Title
%%score { ( 1 3 ) | ( 2 4 ) }
L:1/8
Q:1/4=108
M:4/4
K:Eb
V:1 treble nm="Grand Piano"
V:3 treble 
V:2 bass 
V:4 bass 
V:1
 [B,EG]>[B,EG] [B,EG]>[A,DF] [G,CE]2 [B,DF]2 | [B,EG]4 [B,E]4 | [CEF]3 [CE] [B,EG]2 [A,B,F]2 | %3
w: E.~A.~Hoffman * * * * *|||
 [B,E]4 z4 | [B,EG]>[B,EG] [B,EG]>[A,DF] [G,CE]2 [B,DF]2 | [B,EG]4 [B,E]4 | %6
w: |||
 [CEF]3 [CE] [B,EG]2 [A,DF]2 | [G,E]6 z2 | [EGB]2 [EGB]>[B,FA] [B,EG]2 [B,GB]2 | [B,FA]4 [B,DF]4 | %10
w: ||||
 [B,EG]2 [B,EG]>[A,DF] [G,E]2 [G,E]2 | [B,DF]6 z2 | [B,EG]>[B,EG] [B,EG]>[A,DF] [G,CE]2 [B,DF]2 | %13
w: |||
 [B,EG]4 [B,E]4 | [CEF]3 [CE] [B,EG]2 [A,DF]2 | [G,E]6 z2 | %16
w: |||
 [GB]->[EG-B-] [EG-B-]>[EG-B-] [EGB]2 G>B | [Ge]6 z2 | [Fd]6 z2 | [Ge]6[K:bass] z2 | %20
w: ||||
 e2 e2 e>d e>c | [GB]4 G2 E2 | [A,DF]3 [G,E] [B,EG]2 [A,DF]2 | [G,E]6 z2 |] %24
w: ||||
V:2
 E,>E, E,>B,, C,2 B,,2 | E,4 G,,4 | A,,3 A,, B,,2 B,,2 | z4 B,2 z2 | E,>E, E,>B,, C,2 B,,2 | %5
 E,4 G,,4 | A,,3 A,, B,,2 B,,2 | E,6 z2 | E,2 E,>E, E,2 E,2 | B,,4 B,,4 | E,2 E,>E, E,2 E,2 | %11
 B,,6 z2 | E,>E, E,>B,, C,2 B,,2 | E,4 G,,4 | A,,3 A,, B,,2 B,,2 | E,6 z2 | %16
 E,>E, E,>E, E,2[K:treble] E>G | [E,B,]>E, E,>E, E,2 G2 | [B,,B,]>B,, B,,>B,, B,,2[K:treble] F>A | %19
 [E,B,]>E, E,>E, E,2 z2 | [A,CA]2 [A,CA]2 [A,CA]>[A,=B,A] [A,CA]>[A,EA] | [E,E]4 [B,E]2 G,2 | %22
 B,,3 B,, B,,2 B,,2 | E,6 z2 |] %24
V:3
 x8 | x8 | x8 | G,6 z2 | x8 | x8 | x8 | x8 | x8 | x8 | x8 | x8 | x8 | x8 | x8 | x8 | E2 z2 z4 | %17
 z z/ B,/ B,>B, B,2 e2 | z z/ B,/ B,>B, B,2 d>f | z z/[K:bass] B,/ B,>B, B,2 z2 | x8 | x8 | x8 | %23
 x8 |] %24
V:4
 x8 | x8 | x8 | E,6 z2 | x8 | x8 | x8 | x8 | x8 | x8 | x8 | x8 | x8 | x8 | x8 | x8 | %16
 x6[K:treble] x2 | x8 | x6[K:treble] x2 | x8 | x8 | z4 E,4 | x8 | x8 |] %24

